X:11
T:House of New, The
R:strathspey
C:William Marshall
S:1822 Collection p47
B:Athole
Z:Paul Stewart Cranford (P.S.C.), <http://www.cranfordpub.com>
M:C
L:1/8
Q:266
K:C
E/D/|C<c c2 E<c c2|G<c c2 Bddf|e<c c2 B/c/d/B/ cG|AF E/F/G/F/ ECC:|
||e/f/|gcac gc e2|gcac Bd de/f/|gcac gcc'c|f/e/d/c/ B/c/d/B/ c<C Ce/f/|
gcac gc e2|gcac Bddf|e/f/g/a/ g2 f/e/d/c/ f2|c/B/A/G/ A/B/c/G/ ECC|]

